svg/fluentui-system-icons/ic_fluent_pipeline_add_20_regular.svg

<svg width="20" height="20" viewBox="0 0 20 20" fill="none" xmlns="http://www.w3.org/2000/svg">
<path d="M2 5.5C2 4.67157 2.67157 4 3.5 4C4.32843 4 5 4.67157 5 5.5V6H15V5.5C15 4.67157 15.6716 4 16.5 4C17.3284 4 18 4.67157 18 5.5V10.2572C17.6929 10.0035 17.3578 9.78261 17 9.59971V5.5C17 5.22386 16.7761 5 16.5 5C16.2239 5 16 5.22386 16 5.5V9.20703C15.6777 9.11588 15.3434 9.05337 15 9.02242V7H5V13H9.20703C9.11588 13.3223 9.05337 13.6566 9.02242 14H5V14.5C5 15.3284 4.32843 16 3.5 16C2.67157 16 2 15.3284 2 14.5V5.5ZM4 5.5C4 5.22386 3.77614 5 3.5 5C3.22386 5 3 5.22386 3 5.5V14.5C3 14.7761 3.22386 15 3.5 15C3.77614 15 4 14.7761 4 14.5V5.5ZM19 14.5C19 16.9853 16.9853 19 14.5 19C12.0147 19 10 16.9853 10 14.5C10 12.0147 12.0147 10 14.5 10C16.9853 10 19 12.0147 19 14.5ZM15 12.5C15 12.2239 14.7761 12 14.5 12C14.2239 12 14 12.2239 14 12.5V14H12.5C12.2239 14 12 14.2239 12 14.5C12 14.7761 12.2239 15 12.5 15H14V16.5C14 16.7761 14.2239 17 14.5 17C14.7761 17 15 16.7761 15 16.5V15H16.5C16.7761 15 17 14.7761 17 14.5C17 14.2239 16.7761 14 16.5 14H15V12.5Z" fill="#212121"/>
</svg>

<svg xmlns="http://www.w3.org/2000/svg" width="20" height="20"><path d="M2 5.5a1.5 1.5 0 1 1 3 0V6h10v-.5a1.5 1.5 0 0 1 3 0v4.757a5.503 5.503 0 0 0-1-.657V5.5a.5.5 0 0 0-1 0v3.707a5.48 5.48 0 0 0-1-.185V7H5v6h4.207a5.48 5.48 0 0 0-.185 1H5v.5a1.5 1.5 0 0 1-3 0v-9Zm2 0a.5.5 0 0 0-1 0v9a.5.5 0 0 0 1 0v-9Zm15 9a4.5 4.5 0 1 1-9 0 4.5 4.5 0 0 1 9 0Zm-4-2a.5.5 0 0 0-1 0V14h-1.5a.5.5 0 0 0 0 1H14v1.5a.5.5 0 0 0 1 0V15h1.5a.5.5 0 0 0 0-1H15v-1.5Z"/></svg>
